X: 151115
M: 2/4
L: 1/16
K: C
|: (GF) |\
(EG)C2C2 (ed) | (ce)G2G2 (cB) |A2AG F2dc | B2g2g2 (GF) |\
(EG)C2C2 (ed) | (ce)G2G2 (cB) | A2(dc) B2(ed) | c2c2c2 H:: (cB) |\
e2e2e2 dc | (d4 G)z AB | cBAG ^F2d2 | G6 (cB) |\
e2e2e2 dc | B2e2 E2^F^G | ABcA B2e2 | "_D.C."A6 :| [K:F]\
"Trio"[|]\
c2B2B2 zc | B2A2A2 zA | G2G2=B2d2 | c6 C2 |\
d2B2B2 zd | c2A2A2 zF | D2G2 FEDE "_D.C."F6 |]

